img/Facebook.svg

<svg width="267" height="208" viewBox="0 0 267 208" fill="none" xmlns="http://www.w3.org/2000/svg">
<path d="M135.46 191.187L133.5 189.862L131.54 191.187C118.984 199.674 104.461 204.5 89 204.5C42.2712 204.5 3.49999 160.036 3.5 104C3.5 47.9641 42.2712 3.49999 89 3.49999C104.461 3.49999 118.984 8.32598 131.54 16.813L133.5 18.138L135.46 16.813C148.016 8.32598 162.539 3.5 178 3.5C224.729 3.5 263.5 47.9642 263.5 104C263.5 160.036 224.729 204.5 178 204.5C162.539 204.5 148.016 199.674 135.46 191.187Z" fill="#60A3BF" stroke="#F1C75F" stroke-width="7"/>
<path d="M189.083 111H184.957V91.7129H189.083V104.372C189.758 103.883 190.421 103.346 191.072 102.76C191.731 102.174 192.358 101.56 192.952 100.917C193.546 100.266 194.096 99.6027 194.6 98.9272C195.113 98.2518 195.56 97.5763 195.943 96.9009H198.75C198.181 97.8612 197.505 98.8215 196.724 99.7817C195.943 100.734 195.092 101.645 194.173 102.516L198.799 111H194.246L190.962 105.116C190.352 105.531 189.725 105.914 189.083 106.264V111Z" fill="#FDFDFD"/>
<path d="M182.344 103.919C182.344 104.652 182.247 105.34 182.051 105.982C181.856 106.625 181.583 107.219 181.233 107.765C180.892 108.31 180.477 108.802 179.988 109.242C179.5 109.673 178.963 110.039 178.377 110.34C177.799 110.641 177.177 110.873 176.509 111.036C175.85 111.199 175.171 111.28 174.471 111.28C173.771 111.28 173.091 111.199 172.432 111.036C171.773 110.873 171.15 110.641 170.564 110.34C169.987 110.039 169.454 109.673 168.965 109.242C168.477 108.802 168.058 108.31 167.708 107.765C167.366 107.219 167.098 106.625 166.902 105.982C166.707 105.331 166.609 104.644 166.609 103.919C166.609 103.195 166.707 102.512 166.902 101.869C167.098 101.218 167.366 100.619 167.708 100.074C168.058 99.529 168.477 99.0407 168.965 98.6094C169.454 98.1699 169.987 97.7996 170.564 97.4985C171.15 97.1974 171.773 96.9655 172.432 96.8027C173.091 96.64 173.771 96.5586 174.471 96.5586C175.171 96.5586 175.85 96.64 176.509 96.8027C177.177 96.9655 177.799 97.1974 178.377 97.4985C178.963 97.7996 179.5 98.1699 179.988 98.6094C180.477 99.0407 180.892 99.529 181.233 100.074C181.583 100.619 181.856 101.218 182.051 101.869C182.247 102.512 182.344 103.195 182.344 103.919ZM178.145 103.919C178.145 103.529 178.121 103.118 178.072 102.687C178.031 102.247 177.958 101.82 177.852 101.405C177.746 100.982 177.6 100.579 177.413 100.196C177.234 99.8057 177.01 99.4679 176.741 99.1831C176.473 98.8901 176.151 98.6582 175.777 98.4873C175.403 98.3083 174.967 98.2188 174.471 98.2188C173.999 98.2188 173.58 98.3083 173.213 98.4873C172.847 98.6663 172.526 98.9064 172.249 99.2075C171.98 99.5005 171.753 99.8423 171.565 100.233C171.386 100.624 171.24 101.03 171.126 101.454C171.012 101.869 170.931 102.292 170.882 102.723C170.833 103.146 170.809 103.545 170.809 103.919C170.809 104.294 170.833 104.697 170.882 105.128C170.931 105.551 171.012 105.974 171.126 106.397C171.24 106.821 171.386 107.228 171.565 107.618C171.753 108.001 171.98 108.342 172.249 108.644C172.526 108.937 172.847 109.173 173.213 109.352C173.58 109.531 173.999 109.62 174.471 109.62C174.959 109.62 175.39 109.535 175.765 109.364C176.139 109.185 176.46 108.949 176.729 108.656C177.006 108.363 177.234 108.025 177.413 107.643C177.592 107.26 177.734 106.857 177.84 106.434C177.954 106.011 178.031 105.584 178.072 105.152C178.121 104.721 178.145 104.31 178.145 103.919Z" fill="#FDFDFD"/>
<path d="M164.839 103.919C164.839 104.652 164.742 105.34 164.546 105.982C164.351 106.625 164.078 107.219 163.729 107.765C163.387 108.31 162.972 108.802 162.483 109.242C161.995 109.673 161.458 110.039 160.872 110.34C160.294 110.641 159.672 110.873 159.004 111.036C158.345 111.199 157.666 111.28 156.966 111.28C156.266 111.28 155.586 111.199 154.927 111.036C154.268 110.873 153.646 110.641 153.06 110.34C152.482 110.039 151.949 109.673 151.46 109.242C150.972 108.802 150.553 108.31 150.203 107.765C149.861 107.219 149.593 106.625 149.397 105.982C149.202 105.331 149.104 104.644 149.104 103.919C149.104 103.195 149.202 102.512 149.397 101.869C149.593 101.218 149.861 100.619 150.203 100.074C150.553 99.529 150.972 99.0407 151.46 98.6094C151.949 98.1699 152.482 97.7996 153.06 97.4985C153.646 97.1974 154.268 96.9655 154.927 96.8027C155.586 96.64 156.266 96.5586 156.966 96.5586C157.666 96.5586 158.345 96.64 159.004 96.8027C159.672 96.9655 160.294 97.1974 160.872 97.4985C161.458 97.7996 161.995 98.1699 162.483 98.6094C162.972 99.0407 163.387 99.529 163.729 100.074C164.078 100.619 164.351 101.218 164.546 101.869C164.742 102.512 164.839 103.195 164.839 103.919ZM160.64 103.919C160.64 103.529 160.616 103.118 160.567 102.687C160.526 102.247 160.453 101.82 160.347 101.405C160.241 100.982 160.095 100.579 159.908 100.196C159.729 99.8057 159.505 99.4679 159.236 99.1831C158.968 98.8901 158.646 98.6582 158.272 98.4873C157.898 98.3083 157.462 98.2188 156.966 98.2188C156.494 98.2188 156.075 98.3083 155.708 98.4873C155.342 98.6663 155.021 98.9064 154.744 99.2075C154.476 99.5005 154.248 99.8423 154.061 100.233C153.882 100.624 153.735 101.03 153.621 101.454C153.507 101.869 153.426 102.292 153.377 102.723C153.328 103.146 153.304 103.545 153.304 103.919C153.304 104.294 153.328 104.697 153.377 105.128C153.426 105.551 153.507 105.974 153.621 106.397C153.735 106.821 153.882 107.228 154.061 107.618C154.248 108.001 154.476 108.342 154.744 108.644C155.021 108.937 155.342 109.173 155.708 109.352C156.075 109.531 156.494 109.62 156.966 109.62C157.454 109.62 157.885 109.535 158.26 109.364C158.634 109.185 158.956 108.949 159.224 108.656C159.501 108.363 159.729 108.025 159.908 107.643C160.087 107.26 160.229 106.857 160.335 106.434C160.449 106.011 160.526 105.584 160.567 105.152C160.616 104.721 160.64 104.31 160.64 103.919Z" fill="#FDFDFD"/>
<path d="M147.286 103.969C147.286 104.994 147.131 105.954 146.822 106.85C146.513 107.745 146.065 108.526 145.479 109.193C144.893 109.853 144.177 110.373 143.331 110.756C142.484 111.138 141.524 111.33 140.45 111.33C139.904 111.33 139.384 111.248 138.887 111.085C138.399 110.923 137.947 110.695 137.532 110.402C137.125 110.101 136.763 109.743 136.446 109.328C136.137 108.913 135.892 108.449 135.713 107.936L133.882 111H132.295V91.7129H136.421V98.5854C136.91 97.91 137.496 97.4136 138.179 97.0962C138.871 96.7788 139.628 96.6201 140.45 96.6201C141.524 96.6201 142.484 96.8114 143.331 97.1938C144.177 97.5763 144.893 98.0972 145.479 98.7563C146.065 99.4155 146.513 100.193 146.822 101.088C147.131 101.983 147.286 102.943 147.286 103.969ZM143.099 103.969C143.099 103.611 143.078 103.232 143.038 102.833C143.005 102.427 142.944 102.024 142.854 101.625C142.765 101.226 142.639 100.844 142.476 100.478C142.321 100.111 142.122 99.7899 141.878 99.5132C141.634 99.2284 141.341 99.0046 140.999 98.8418C140.657 98.6709 140.254 98.5854 139.791 98.5854C139.367 98.5854 138.989 98.675 138.655 98.854C138.33 99.0249 138.041 99.2568 137.789 99.5498C137.544 99.8428 137.337 100.176 137.166 100.551C136.995 100.925 136.857 101.312 136.751 101.71C136.645 102.109 136.568 102.504 136.519 102.895C136.47 103.285 136.446 103.643 136.446 103.969C136.446 104.335 136.462 104.722 136.495 105.128C136.535 105.535 136.6 105.942 136.69 106.349C136.779 106.748 136.902 107.13 137.056 107.497C137.219 107.855 137.422 108.176 137.667 108.461C137.919 108.738 138.216 108.957 138.558 109.12C138.908 109.283 139.319 109.364 139.791 109.364C140.246 109.364 140.645 109.283 140.987 109.12C141.337 108.949 141.634 108.725 141.878 108.449C142.122 108.164 142.321 107.838 142.476 107.472C142.639 107.098 142.765 106.711 142.854 106.312C142.944 105.914 143.005 105.515 143.038 105.116C143.078 104.709 143.099 104.327 143.099 103.969Z" fill="#FDFDFD"/>
<path d="M119.551 104.31C120.056 104.424 120.56 104.514 121.065 104.579C121.569 104.644 122.078 104.676 122.591 104.676C123.128 104.676 123.624 104.627 124.08 104.53C124.544 104.424 124.943 104.253 125.276 104.017C125.618 103.773 125.887 103.451 126.082 103.053C126.277 102.654 126.375 102.158 126.375 101.563C126.375 101.083 126.31 100.644 126.18 100.245C126.049 99.8464 125.854 99.5046 125.594 99.2197C125.341 98.9349 125.028 98.7152 124.654 98.5605C124.279 98.3978 123.844 98.3164 123.348 98.3164C122.884 98.3164 122.465 98.4019 122.09 98.5728C121.724 98.7437 121.399 98.9756 121.114 99.2686C120.837 99.5534 120.597 99.887 120.394 100.27C120.198 100.652 120.035 101.051 119.905 101.466C119.775 101.881 119.681 102.3 119.625 102.723C119.568 103.146 119.539 103.545 119.539 103.919C119.539 103.985 119.539 104.05 119.539 104.115C119.539 104.18 119.543 104.245 119.551 104.31ZM129.72 101.527C129.72 102.105 129.626 102.621 129.439 103.077C129.252 103.525 128.995 103.919 128.67 104.261C128.353 104.603 127.982 104.892 127.559 105.128C127.136 105.364 126.684 105.559 126.204 105.714C125.724 105.86 125.228 105.966 124.715 106.031C124.21 106.096 123.718 106.129 123.238 106.129C122.627 106.129 122.025 106.088 121.431 106.007C120.837 105.917 120.251 105.779 119.673 105.592C119.763 106.129 119.905 106.642 120.101 107.13C120.296 107.61 120.556 108.033 120.882 108.399C121.207 108.757 121.606 109.042 122.078 109.254C122.558 109.465 123.124 109.571 123.775 109.571C124.206 109.571 124.617 109.506 125.008 109.376C125.398 109.246 125.757 109.063 126.082 108.827C126.408 108.591 126.692 108.31 126.937 107.984C127.189 107.659 127.392 107.297 127.547 106.898L129.329 107.557C129.061 108.2 128.69 108.757 128.218 109.229C127.754 109.693 127.225 110.08 126.631 110.389C126.045 110.69 125.419 110.914 124.751 111.061C124.092 111.207 123.437 111.28 122.786 111.28C121.712 111.28 120.719 111.101 119.808 110.743C118.896 110.377 118.111 109.868 117.452 109.217C116.792 108.566 116.276 107.789 115.901 106.886C115.527 105.982 115.34 104.994 115.34 103.919C115.34 102.845 115.527 101.856 115.901 100.953C116.276 100.05 116.792 99.2726 117.452 98.6216C118.111 97.9705 118.896 97.466 119.808 97.1079C120.719 96.7417 121.712 96.5586 122.786 96.5586C123.307 96.5586 123.84 96.5952 124.385 96.6685C124.931 96.7417 125.459 96.8597 125.972 97.0225C126.485 97.1771 126.969 97.3805 127.425 97.6328C127.881 97.8851 128.275 98.1984 128.609 98.5728C128.951 98.939 129.219 99.3662 129.415 99.8545C129.618 100.343 129.72 100.9 129.72 101.527Z" fill="#FDFDFD"/>
<path d="M113.716 100.392L111.934 101.1C111.649 100.204 111.173 99.5168 110.506 99.0366C109.839 98.5565 109.037 98.3164 108.101 98.3164C107.597 98.3164 107.145 98.3978 106.746 98.5605C106.355 98.7152 106.01 98.9308 105.708 99.2075C105.416 99.4842 105.163 99.8057 104.952 100.172C104.748 100.538 104.581 100.929 104.451 101.344C104.321 101.759 104.227 102.19 104.17 102.638C104.113 103.077 104.085 103.504 104.085 103.919C104.085 104.367 104.109 104.819 104.158 105.274C104.207 105.73 104.288 106.17 104.402 106.593C104.524 107.008 104.683 107.398 104.878 107.765C105.074 108.123 105.318 108.436 105.611 108.705C105.912 108.973 106.266 109.185 106.673 109.339C107.088 109.494 107.564 109.571 108.101 109.571C108.532 109.571 108.943 109.506 109.334 109.376C109.725 109.246 110.083 109.063 110.408 108.827C110.734 108.591 111.023 108.31 111.275 107.984C111.527 107.659 111.727 107.297 111.873 106.898L113.667 107.557C113.399 108.2 113.041 108.757 112.593 109.229C112.154 109.693 111.653 110.08 111.092 110.389C110.53 110.69 109.928 110.914 109.285 111.061C108.642 111.207 107.991 111.28 107.332 111.28C106.266 111.28 105.277 111.101 104.366 110.743C103.454 110.377 102.665 109.868 101.998 109.217C101.338 108.558 100.822 107.781 100.447 106.886C100.073 105.982 99.8857 104.994 99.8857 103.919C99.8857 102.837 100.069 101.844 100.435 100.941C100.809 100.038 101.326 99.2604 101.985 98.6094C102.645 97.9583 103.43 97.4538 104.341 97.0957C105.253 96.7376 106.25 96.5586 107.332 96.5586C108.016 96.5586 108.683 96.6359 109.334 96.7905C109.985 96.937 110.587 97.1689 111.141 97.4863C111.702 97.7956 112.203 98.1903 112.642 98.6704C113.09 99.1506 113.448 99.7243 113.716 100.392Z" fill="#FDFDFD"/>
<path d="M97.249 111H93.123V109.315C92.6348 109.982 92.0448 110.479 91.353 110.804C90.6694 111.122 89.9167 111.28 89.0947 111.28C88.0205 111.28 87.0602 111.089 86.2139 110.707C85.3675 110.324 84.6514 109.803 84.0654 109.144C83.4795 108.477 83.0319 107.695 82.7227 106.8C82.4134 105.905 82.2588 104.945 82.2588 103.919C82.2588 102.894 82.4134 101.934 82.7227 101.039C83.0319 100.143 83.4795 99.3662 84.0654 98.707C84.6514 98.0397 85.3675 97.5148 86.2139 97.1323C87.0602 96.7498 88.0205 96.5586 89.0947 96.5586C89.64 96.5586 90.1567 96.64 90.645 96.8027C91.1414 96.9655 91.5931 97.1974 92 97.4985C92.415 97.7915 92.7772 98.1496 93.0864 98.5728C93.4038 98.9878 93.652 99.4517 93.8311 99.9644L95.6621 96.9004H97.249V111ZM93.0986 103.919C93.0986 103.553 93.0783 103.167 93.0376 102.76C93.005 102.353 92.944 101.95 92.8545 101.551C92.765 101.153 92.6388 100.774 92.4761 100.416C92.3215 100.05 92.118 99.7284 91.8657 99.4517C91.6216 99.1668 91.3245 98.943 90.9746 98.7803C90.6247 98.6175 90.2178 98.5361 89.7539 98.5361C89.29 98.5361 88.8872 98.6216 88.5454 98.7925C88.2036 98.9552 87.9106 99.179 87.6665 99.4639C87.4224 99.7406 87.2189 100.062 87.0562 100.428C86.9015 100.794 86.7795 101.177 86.6899 101.576C86.6004 101.974 86.5353 102.377 86.4946 102.784C86.4621 103.183 86.4458 103.561 86.4458 103.919C86.4458 104.278 86.4621 104.66 86.4946 105.067C86.5353 105.474 86.6004 105.877 86.6899 106.275C86.7795 106.674 86.9015 107.057 87.0562 107.423C87.2189 107.789 87.4224 108.115 87.6665 108.399C87.9106 108.676 88.2036 108.9 88.5454 109.071C88.8872 109.234 89.29 109.315 89.7539 109.315C90.1771 109.315 90.5514 109.229 90.877 109.059C91.2106 108.88 91.4995 108.644 91.7437 108.351C91.9959 108.058 92.2075 107.724 92.3784 107.35C92.5493 106.975 92.6877 106.589 92.7935 106.19C92.8993 105.791 92.9766 105.396 93.0254 105.006C93.0742 104.607 93.0986 104.245 93.0986 103.919Z" fill="#FDFDFD"/>
<path d="M73.8359 111H68.9897V93.4219H81.6118V95.668H73.8359V101.1H79.8418V103.334H73.8359V111Z" fill="#FDFDFD"/>
</svg>

<svg width="267" height="208" fill="none" xmlns="http://www.w3.org/2000/svg"><path d="M135.46 191.187l-1.96-1.325-1.96 1.325C118.984 199.674 104.461 204.5 89 204.5c-46.729 0-85.5-44.464-85.5-100.5S42.271 3.5 89 3.5c15.461 0 29.984 4.826 42.54 13.313l1.96 1.325 1.96-1.325C148.016 8.326 162.539 3.5 178 3.5c46.729 0 85.5 44.464 85.5 100.5S224.729 204.5 178 204.5c-15.461 0-29.984-4.826-42.54-13.313z" fill="#60A3BF" stroke="#F1C75F" stroke-width="7"/><path d="M189.083 111h-4.126V91.713h4.126v12.659a24.164 24.164 0 001.989-1.612c.659-.586 1.286-1.2 1.88-1.843a26.208 26.208 0 001.648-1.99c.513-.675.96-1.35 1.343-2.026h2.807c-.569.96-1.245 1.92-2.026 2.88a29.838 29.838 0 01-2.551 2.735l4.626 8.484h-4.553l-3.284-5.884c-.61.415-1.237.798-1.879 1.148V111zm-6.739-7.081a7.032 7.032 0 01-1.111 3.846 6.912 6.912 0 01-1.245 1.477 7.822 7.822 0 01-1.611 1.098 8.27 8.27 0 01-1.868.696 8.454 8.454 0 01-2.038.244c-.7 0-1.38-.081-2.039-.244a8.585 8.585 0 01-1.868-.696 8.019 8.019 0 01-1.599-1.098 7.274 7.274 0 01-1.257-1.477 7.15 7.15 0 01-1.099-3.846c0-.724.098-1.407.293-2.05a7.34 7.34 0 01.806-1.795 6.98 6.98 0 011.257-1.465 7.742 7.742 0 011.599-1.11 8.57 8.57 0 015.945-.696c.668.163 1.29.394 1.868.696a7.56 7.56 0 011.611 1.11c.489.432.904.92 1.245 1.465.35.545.623 1.144.818 1.795.196.643.293 1.326.293 2.05zm-4.199 0c0-.39-.024-.801-.073-1.232a8.27 8.27 0 00-.22-1.282 6.158 6.158 0 00-.439-1.209 3.717 3.717 0 00-.672-1.013 2.956 2.956 0 00-.964-.696c-.374-.179-.81-.268-1.306-.268-.472 0-.891.09-1.258.268-.366.18-.687.42-.964.72a4.186 4.186 0 00-.684 1.026 8.339 8.339 0 00-.683 2.49c-.049.423-.073.822-.073 1.196 0 .375.024.778.073 1.209.049.423.13.846.244 1.269.114.424.26.831.439 1.221.188.383.415.724.684 1.026.277.293.598.529.964.708.367.179.786.268 1.258.268.488 0 .919-.085 1.294-.256.374-.179.695-.415.964-.708.277-.293.505-.631.684-1.013.179-.383.321-.786.427-1.209.114-.423.191-.85.232-1.282.049-.431.073-.842.073-1.233zm-13.306 0a7.032 7.032 0 01-1.11 3.846 6.946 6.946 0 01-1.246 1.477 7.822 7.822 0 01-1.611 1.098 8.27 8.27 0 01-1.868.696 8.454 8.454 0 01-2.038.244c-.7 0-1.38-.081-2.039-.244a8.577 8.577 0 01-1.867-.696 7.997 7.997 0 01-1.6-1.098 7.274 7.274 0 01-1.257-1.477 7.15 7.15 0 01-1.099-3.846c0-.724.098-1.407.293-2.05a7.34 7.34 0 01.806-1.795 6.98 6.98 0 011.257-1.465 7.722 7.722 0 011.6-1.11 8.561 8.561 0 015.944-.696c.668.163 1.29.394 1.868.696a7.56 7.56 0 011.611 1.11c.489.432.904.92 1.246 1.465.349.545.622 1.144.817 1.795.196.643.293 1.326.293 2.05zm-4.199 0c0-.39-.024-.801-.073-1.232a8.27 8.27 0 00-.22-1.282 6.158 6.158 0 00-.439-1.209 3.717 3.717 0 00-.672-1.013 2.956 2.956 0 00-.964-.696c-.374-.179-.81-.268-1.306-.268-.472 0-.891.09-1.258.268-.366.18-.687.42-.964.72a4.183 4.183 0 00-.683 1.026 8.339 8.339 0 00-.684 2.49c-.049.423-.073.822-.073 1.196 0 .375.024.778.073 1.209.049.423.13.846.244 1.269.114.424.261.831.44 1.221.187.383.415.724.683 1.026.277.293.598.529.964.708.367.179.786.268 1.258.268.488 0 .919-.085 1.294-.256.374-.179.696-.415.964-.708.277-.293.505-.631.684-1.013.179-.383.321-.786.427-1.209.114-.423.191-.85.232-1.282.049-.431.073-.842.073-1.233zm-13.354.05a8.776 8.776 0 01-.464 2.881 6.938 6.938 0 01-1.343 2.343 6.31 6.31 0 01-2.148 1.563c-.847.382-1.807.574-2.881.574a4.979 4.979 0 01-2.918-.928 5.414 5.414 0 01-1.086-1.074 5.163 5.163 0 01-.733-1.392L133.882 111h-1.587V91.713h4.126v6.872c.489-.675 1.075-1.171 1.758-1.489a5.382 5.382 0 012.271-.476c1.074 0 2.034.191 2.881.574a6.314 6.314 0 012.148 1.562 6.812 6.812 0 011.343 2.332c.309.895.464 1.855.464 2.881zm-4.187 0c0-.358-.021-.737-.061-1.136a8.681 8.681 0 00-.184-1.208 6.046 6.046 0 00-.378-1.147 3.507 3.507 0 00-.598-.965 2.636 2.636 0 00-.879-.671c-.342-.171-.745-.257-1.208-.257-.424 0-.802.09-1.136.269-.325.17-.614.403-.866.696a4.385 4.385 0 00-.623 1.001 7.304 7.304 0 00-.415 1.159 8.943 8.943 0 00-.232 1.185 8.66 8.66 0 00-.073 1.074c0 .366.016.753.049 1.159.04.407.105.814.195 1.221.089.399.212.781.366 1.148.163.358.366.679.611.964.252.277.549.496.891.659.35.163.761.244 1.233.244.455 0 .854-.081 1.196-.244.35-.171.647-.395.891-.671.244-.285.443-.611.598-.977.163-.374.289-.761.378-1.16a8.65 8.65 0 00.184-1.196c.04-.407.061-.789.061-1.147zm-23.548.341c.505.114 1.009.204 1.514.269.504.065 1.013.097 1.526.097.537 0 1.033-.049 1.489-.146a3.326 3.326 0 001.196-.513c.342-.244.611-.566.806-.964.195-.399.293-.895.293-1.49 0-.48-.065-.919-.195-1.318a2.79 2.79 0 00-.586-1.025 2.529 2.529 0 00-.94-.66c-.375-.162-.81-.244-1.306-.244-.464 0-.883.086-1.258.257-.366.17-.691.403-.976.696a4.339 4.339 0 00-.72 1.001 7.577 7.577 0 00-.769 2.453 8.986 8.986 0 00-.086 1.196v.196c0 .065.004.13.012.195zm10.169-2.783c0 .578-.094 1.094-.281 1.55a3.862 3.862 0 01-.769 1.184 4.477 4.477 0 01-1.111.867 7.51 7.51 0 01-1.355.586c-.48.146-.976.252-1.489.317-.505.065-.997.098-1.477.098-.611 0-1.213-.041-1.807-.122-.594-.09-1.18-.228-1.758-.415.09.537.232 1.05.428 1.538.195.48.455.903.781 1.269.325.358.724.643 1.196.855.48.211 1.046.317 1.697.317a3.882 3.882 0 002.307-.744c.326-.236.61-.517.855-.843.252-.325.455-.687.61-1.086l1.782.659a5.127 5.127 0 01-1.111 1.672 6.419 6.419 0 01-1.587 1.16 7.729 7.729 0 01-1.88.672 9.062 9.062 0 01-1.965.219c-1.074 0-2.067-.179-2.978-.537a7.04 7.04 0 01-2.356-1.526 7.003 7.003 0 01-1.551-2.331c-.374-.904-.561-1.892-.561-2.967 0-1.074.187-2.063.561-2.966a7.005 7.005 0 011.551-2.331 6.89 6.89 0 012.356-1.514c.911-.366 1.904-.55 2.978-.55.521 0 1.054.037 1.599.11a9.33 9.33 0 011.587.354c.513.155.997.358 1.453.61.456.253.85.566 1.184.94a4.1 4.1 0 01.806 1.282c.203.489.305 1.046.305 1.673zm-16.004-1.135l-1.782.708c-.285-.896-.761-1.583-1.428-2.063-.667-.48-1.469-.72-2.405-.72-.504 0-.956.08-1.355.244a3.34 3.34 0 00-1.038.646 4.227 4.227 0 00-.756.965 6.219 6.219 0 00-.501 1.172c-.13.415-.224.846-.281 1.294a9.945 9.945 0 00-.085 1.281c0 .448.024.9.073 1.355.049.456.13.896.244 1.319.122.415.281.805.476 1.172.196.358.44.671.733.94.301.268.655.48 1.062.634.415.155.891.232 1.428.232a3.882 3.882 0 002.307-.744 4.22 4.22 0 00.867-.843 4.01 4.01 0 00.598-1.086l1.794.659a5.442 5.442 0 01-1.074 1.672c-.439.464-.94.851-1.501 1.16a7.211 7.211 0 01-1.807.672 8.793 8.793 0 01-1.953.219c-1.066 0-2.055-.179-2.966-.537a7.174 7.174 0 01-2.368-1.526 7.169 7.169 0 01-1.551-2.331c-.374-.904-.561-1.892-.561-2.967 0-1.082.183-2.075.549-2.978a7.003 7.003 0 011.55-2.332 6.91 6.91 0 012.356-1.513c.912-.358 1.909-.537 2.991-.537.684 0 1.351.077 2.002.231a6.467 6.467 0 011.807.696 5.85 5.85 0 011.501 1.184c.448.48.806 1.054 1.074 1.722zM97.249 111h-4.126v-1.685c-.488.667-1.078 1.164-1.77 1.489-.684.318-1.436.476-2.258.476-1.075 0-2.035-.191-2.881-.573a6.321 6.321 0 01-2.149-1.563 6.947 6.947 0 01-1.342-2.344 8.76 8.76 0 01-.464-2.881 8.74 8.74 0 01.464-2.88 6.808 6.808 0 011.342-2.332 6.236 6.236 0 012.149-1.575c.846-.382 1.806-.573 2.88-.573a4.872 4.872 0 012.906.94c.415.293.777.65 1.086 1.074.318.415.566.879.745 1.391l1.831-3.064h1.587V111zm-4.15-7.081c0-.366-.02-.752-.061-1.159a8.685 8.685 0 00-.183-1.209 5.827 5.827 0 00-.379-1.135 3.355 3.355 0 00-.61-.964 2.603 2.603 0 00-.891-.672c-.35-.162-.757-.244-1.221-.244-.464 0-.867.086-1.209.257a2.636 2.636 0 00-.879.67 3.744 3.744 0 00-.61.965 6.731 6.731 0 00-.366 1.148c-.09.398-.155.801-.195 1.208a13.8 13.8 0 00-.05 1.135c0 .359.017.741.05 1.148.04.407.105.81.195 1.208.09.399.212.782.366 1.148.163.366.366.692.61.976.245.277.538.501.88.672.341.163.744.244 1.208.244.423 0 .797-.086 1.123-.256a2.91 2.91 0 00.867-.708 4.2 4.2 0 00.634-1.001c.171-.375.31-.761.415-1.16a8.96 8.96 0 00.306-2.271zM73.836 111H68.99V93.422h12.622v2.246h-7.776v5.432h6.006v2.234h-6.006V111z" fill="#FDFDFD"/></svg>
